X:1
T:8 Lieder und Gesänge, Op.58
T:In der Gasse
T:6. In der Gasse
T:Johannes Brahms
T:Friedrich Hebbel
T:8 Lieder und Gesänge, Op.58
T:Creative Commons copyright waiver (CC0 1.0 Universal) 
T:Creative Commons copyright waiver (CC0 1.0 Universal) 
C:Johannes Brahms
Z:Friedrich Hebbel
Z:Creative Commons copyright waiver (CC0 1.0 Universal)
Z:
L:1/8
M:3/4
K:F
V:1 treble nm="Singstimme\nVoice"
V:1
 z2 | z6 | z6 | z6 | z6 | z6 | z2 z2 A2 | d3 A B2 | A2 D2 E2 | F6 | F4 B2 | d4 c2 | B3 c B2 | %13
w: ||||||Ich|bli- cke hin-|ab in die|Gas-|se, dort|drü- ben|hat sie ge-|
 A4 z2 | z6 | z6 | z2 z2 A2 | (A4 B2) | A4 A2 | d3 A B2 | A4 E2 | z6 | z2 z2 G2 | B4 B2 | B4 c2 | %25
w: wohnt;|||das|ö- *|de, ver-|las- se- ne|Fen- ster,||wie|hell be-|scheint's der|
 A4 z2 | z2 z2 A2 | d6- | d4 G2 | (B6- | B2 A2) G2 | A4 z2 | z6 | z6 | z6 | z6 | z6 | z2 z2 E2 | %38
w: Mond,|wie|hell|_ be-|scheint's|_ _ der|Mond||||||Es|
 F4 F2 | _G2 B2 _e2 | d4 F2 | z2 z2 _A2 | G4 =A2 | B2 _e2 _g2 | f4 z2 | z2 z2 d2 | d4 =B2 | c4 A2 | %48
w: gibt so|viel zu be-|leuch- ten,|o|hol- de|Strah- len des|Lichts,|was|webt ihr|denn ge-|
 (B4 F2) | G4 G2 | G4 G2 | ^c2 d2 e2 | f4- f z | ^c6 | d6 | B6 | B6 | A4 z2 | z6 | ^C6 | D6 | z6 | %62
w: spen- *|stisch um|je- ne|Stät- te des|Nichts, _|um|je-|ne|Stät-|te||des|Nichts!||
 z6 | z6 | z6 | z2 z2 |] %66
w: ||||

